X: 28304
T: Much Better Now
R: polka
M: 2/4
K: Bminor
|:e>d cB|e>d cA-|Ae dB|Af ef|
e>d cB|e>d cA-|AA dc|B2 de:|
|:g>f eg|fd d2|dA df|a>g eB|
g>f eg|fd f2-|fe ed|1 B2 cB:|2 B2 Bd||

